svgs/samsung_internet_browser_beta.svg

<svg width="192" height="192" viewBox="0 0 192 192" fill="none" xmlns="http://www.w3.org/2000/svg">
<path fill-rule="evenodd" clip-rule="evenodd" d="M125 45.7705C97.2591 29.7542 61.7869 39.259 45.7706 67C43.077 71.6655 41.1052 76.5497 39.8207 81.5233C49.6705 93.1213 64.9653 105.788 84.003 116.779C86.68 118.325 89.3486 119.79 92 121.174V134.611C87.3636 132.356 82.6839 129.874 78.003 127.172C62.1181 118.001 48.4405 107.569 38.0038 97.1919C38.4253 116.795 48.7789 135.709 67.0001 146.229C75.2764 151.008 84.2266 153.511 93.1426 153.943C94.512 158.58 97.0497 162.717 100.415 166.011H96.0056C84.1018 166.022 72.0354 162.993 61.0001 156.622C35.0401 141.634 22.3123 112.528 26.9151 84.6019C16.9967 71.4344 13.2852 59.2662 18.0607 50.9948C22.8368 42.7225 35.2328 39.8529 51.5982 41.8601C73.4815 23.9189 105.045 20.3928 131 35.3782C149.517 46.069 161.296 63.9415 164.863 83.4318C162.078 82.503 159.098 82 156 82H152.286C148.616 67.2507 139.192 53.9642 125 45.7705ZM35.3783 61C33.8079 63.72 32.4408 66.5017 31.2722 69.3274C30.0678 67.0767 29.2153 65.0367 28.6794 63.2387C27.4765 59.2033 28.1491 57.5211 28.453 56.9948C28.7569 56.4685 29.8773 55.0449 33.9735 54.0689C35.7991 53.6339 37.9927 53.3521 40.5449 53.27C38.6791 55.6978 36.951 58.276 35.3783 61ZM118 90C108.059 90 100 98.0589 100 108V148C100 157.941 108.059 166 118 166H158C167.941 166 176 157.941 176 148V108C176 98.0589 167.941 90 158 90H118ZM112 108C112 104.686 114.686 102 118 102H158C161.314 102 164 104.686 164 108V148C164 151.314 161.314 154 158 154H118C114.686 154 112 151.314 112 148V108ZM141 124H133V118H141C142.657 118 144 119.343 144 121C144 122.657 142.657 124 141 124ZM152 121C152 123.133 151.393 125.123 150.343 126.809C152.588 128.823 154 131.747 154 135C154 141.075 149.075 146 143 146H129C126.791 146 125 144.209 125 142V128V114C125 111.791 126.791 110 129 110H141C147.075 110 152 114.925 152 121ZM133 132H141H143C144.657 132 146 133.343 146 135C146 136.657 144.657 138 143 138H133V132Z" fill="black"/>
</svg>

<svg width="192" height="192" viewBox="0 0 192 192" fill="none" xmlns="http://www.w3.org/2000/svg"><path fill-rule="evenodd" clip-rule="evenodd" d="M125 45.77C97.26 29.755 61.787 39.26 45.77 67a58.052 58.052 0 0 0-5.95 14.523c9.85 11.598 25.145 24.265 44.183 35.256A214.107 214.107 0 0 0 92 121.174v13.437a224.074 224.074 0 0 1-13.997-7.439c-15.885-9.171-29.563-19.603-40-29.98.422 19.603 10.776 38.517 28.997 49.037 8.276 4.779 17.227 7.282 26.143 7.714a27.992 27.992 0 0 0 7.272 12.068h-4.41c-11.903.011-23.97-3.018-35.005-9.389-25.96-14.988-38.688-44.094-34.085-72.02-9.918-13.168-13.63-25.336-8.854-33.607 4.776-8.273 17.172-11.142 33.537-9.135C73.481 23.92 105.045 20.393 131 35.378c18.517 10.691 30.296 28.563 33.863 48.054A27.966 27.966 0 0 0 156 82h-3.714c-3.67-14.75-13.094-28.036-27.286-36.23ZM35.378 61a70.655 70.655 0 0 0-4.106 8.327c-1.204-2.25-2.057-4.29-2.593-6.088-1.202-4.036-.53-5.718-.226-6.244.304-.526 1.424-1.95 5.52-2.926 1.826-.435 4.02-.717 6.572-.799A70.652 70.652 0 0 0 35.378 61ZM118 90c-9.941 0-18 8.059-18 18v40c0 9.941 8.059 18 18 18h40c9.941 0 18-8.059 18-18v-40c0-9.941-8.059-18-18-18h-40Zm-6 18a6 6 0 0 1 6-6h40a6 6 0 0 1 6 6v40a6 6 0 0 1-6 6h-40a6 6 0 0 1-6-6v-40Zm29 16h-8v-6h8a3 3 0 1 1 0 6Zm11-3a10.95 10.95 0 0 1-1.657 5.809A10.973 10.973 0 0 1 154 135c0 6.075-4.925 11-11 11h-14a4 4 0 0 1-4-4v-28a4 4 0 0 1 4-4h12c6.075 0 11 4.925 11 11Zm-19 11h10a3 3 0 1 1 0 6h-10v-6Z" fill="#000"/></svg>
